packages/icons/svg/Outline/attach-2.svg

<svg width="24" height="24" viewBox="0 0 24 24" fill="none" xmlns="http://www.w3.org/2000/svg">
<g id="Icon/Outline/attach-2">
<path id="Mask" fill-rule="evenodd" clip-rule="evenodd" d="M9.29354 21C7.63754 21 6.06354 20.334 4.86154 19.125C2.47354 16.722 2.37554 12.912 4.64254 10.631L12.0285 3.201C12.7975 2.427 13.8355 2 14.9505 2C16.1435 2 17.2775 2.479 18.1425 3.349C19.8635 5.08 19.9295 7.831 18.2885 9.481L10.8935 16.91C10.4145 17.393 9.76954 17.658 9.07754 17.658C8.34654 17.658 7.65354 17.366 7.12754 16.837C6.07454 15.776 6.04154 14.085 7.05454 13.065L13.8795 6.21C14.2695 5.818 14.9015 5.816 15.2935 6.206C15.6845 6.596 15.6865 7.229 15.2965 7.62L8.47254 14.476C8.23254 14.718 8.26554 15.145 8.54654 15.427C8.69254 15.574 8.88654 15.658 9.07754 15.658C9.18754 15.658 9.34554 15.631 9.47554 15.5L16.8705 8.071C17.7375 7.198 17.6725 5.713 16.7245 4.759C15.8175 3.847 14.2785 3.775 13.4465 4.611L6.06054 12.041C4.56654 13.544 4.66454 16.09 6.28054 17.715C7.10354 18.544 8.17354 19 9.29354 19C10.2945 19 11.2225 18.622 11.9045 17.936L19.2915 10.506C19.6805 10.115 20.3135 10.112 20.7055 10.502C21.0965 10.892 21.0985 11.524 20.7095 11.916L13.3225 19.346C12.2625 20.412 10.8315 21 9.29354 21Z" fill="#000000"/>
</g>
</svg>

<svg fill="none" height="24" viewBox="0 0 24 24" width="24" xmlns="http://www.w3.org/2000/svg"><path clip-rule="evenodd" d="m9.29348 21c-1.656 0-3.23-.666-4.432-1.875-2.388-2.403-2.486-6.213-.219-8.494l7.38602-7.43c.769-.774 1.807-1.201 2.922-1.201 1.193 0 2.327.479 3.192 1.349 1.721 1.731 1.787 4.482.146 6.132l-7.395 7.429c-.479.483-1.12402.748-1.81602.748-.731 0-1.424-.292-1.95-.821-1.053-1.061-1.086-2.752-.073-3.772l6.82502-6.855c.39-.392 1.022-.394 1.414-.004.391.39.393 1.023.003 1.414l-6.82402 6.856c-.24.242-.207.669.074.951.146.147.34.231.531.231.11 0 .268-.027.398-.158l7.39502-7.429c.867-.873.802-2.358-.146-3.312-.907-.912-2.446-.984-3.278-.148l-7.38602 7.43c-1.494 1.503-1.396 4.049.22 5.674.823.829 1.893 1.285 3.013 1.285 1.00102 0 1.92902-.378 2.61102-1.064l7.387-7.43c.389-.391 1.022-.394 1.414-.004.391.39.393 1.022.004 1.414l-7.387 7.43c-1.06 1.066-2.491 1.654-4.02902 1.654" fill="#6b7280" fill-rule="evenodd"/></svg>
